!!!OTL: La jeune Indienne (1-11), S. 28
!!!id: K0087
**kern
*clefG2
*k[f#]
*G:
{8d
8g
8a
=1
4.b
8g
8d
8cc
8b
8a
=2
4b
4g}
8r
=3
{8b
8dd
8g
=4
4.a
8b
8dd
8cc
8e
8f#
=5
4g}
4.r
=6
{8d
8g
8a
=7
4.b
8g
8d
8cc
8b
8a
=8
4b
4g}
8r
=9
{8b
8dd
8g
=10
4.a
8b
8dd
8cc
8e
8f#
=11
4g}
4.r
=12
{8ee
8dd
8cc#
=13
4.dd
8b
8g
8ee
8dd
8cc#
=14
4dd
4b}
8r
=15
{8b
8dd
8g
=16
4.a
8b
8dd
8cc
8e
8f#
=17
4g}
4.r
=18
{8ee
8dd
8cc#
=19
4.dd
8b
8g
8ee
8dd
8cc#
=20
4dd
4b}
8r
=21
{8b
8dd
8g
=22
4.a
8b
8dd
8cc
8e
8f#
=23
4g}
4.r
=24
{8dd
8cc#
8dd
=25
4.ff#
8ee
8dd
8dd
8cc
8f#
=26
4g}
4.r
==
*-
!!!minrhy: 8
!!!meters: 4/4 ]  ZZ[9
!!!cut: La jeune Indienne (1-11), S. 28
!!!reg: Luxemburg
!!!trd: KINTZELE, Guillaume: An der Ucht, Bd. 1, Luxemburg 1926
!!!rhy1: XXX  X_.XXXXX  X_X_0
!!!rhy2: XXX  X_.XXXXX  X_0_.
!!!key: K0087  08  G 4/4 ]  ZZ[9
!!!mod: ACHTTONSKALA DUR ?]  AMBITUS[10
!!!kad: 111131311
!!!akz: 3-53_251_3-53_251_515_251_515_251_751_
!!!fot: 'a__b__a__b__c__b__c__b__d__
!!!for: 'a__aw_a__aw_a__aw_a__aw_aw_
!!!fok: '^a_~d_^a_~d_\__~d_\__~d_^d_
!! PHRAS[AUFTAKTIG]
!!!fkt: Liebe, Vaterland, ???
!!!bem: in der Quelle mit einer 2. Stimme versehen
!! KINTZELE
!! PR[25] 2K[6] 2G[23] 3K[0] 3G[0] 4A[6] 4Ü[0] 5A[0] 6K[0] 6G[4]
!! 7K[0] 7G[0] 8A[0] MEHR[0] SI[40] ABS[48] SR[29] SP[10]
!! ST[12] 2k[0] 2g[19] 3k[8] 3g[4] 4d[2] 4ü[0] 5d[0] 6k[0] 6g[0]
!! 7k[2] 7g[0] 8d[0] mehr[0] si[35] dm[+5] sr[19] sp[17]
!! 1F[75] 2F[17] 3F[6] 4F[0] LF[0] 2P[2] 3P[0] 4P[0] TRI[0] DF[4] AB[52]
!! TF[0] U3K[0] U3[0] U4[0] U4Ü[0] U5[6] U6K[0] U6[2] U7K[0] U7[2]
!! N1[16] N2K[0] N2[31] N3K[0] N3[27] N4[8] N4Ü[0] N5[4] N6K[0] N6[2]
!!!n7k: 0] N7[0] O1[2] O2K[0] O2[0] O3K[0] O3[0] HÖ[0
